X: 6389
T: Castle Kelly
R: reel
M: 4/4
K: Aminor
|:A2cA A2cA|GBEG G3E|A2cA GAcA|egdB cAA2|
A2A2 cAEA|GBEG G3E|A2cA GAcA|egdB cAA2||
agec d3d|cAGE G3g|agec d3d|eaag a3a|
gedc dee2|cAGE G3E|A2cA GAcA|egdB cAA2:|
eAcA eAcA|GBEG G3E|A2cA GAcA|egdB cAA2|
A2A2 cAEA|GBEG G3E|A2cA GAcA|egdB cAA2||
eAA2 eAA2|GBEG G3E|A2cA GAcA|egdB cAA2|
A2cA A2cA|GBEG G3E|A2cA GAcA|egdB cAA2||
|:agec dee2|cAGE G3g|agec d2ed|eaag a3a|
gedc d3d|cAGE G3E|A2cA GAcA|egdB cAA2:|

